assets/icons/bowtie/1.22/uE66B-security-lock.svg

<svg xmlns="http://www.w3.org/2000/svg" viewBox="0 0 448 448" enable-background="new 0 0 448 448"><path d="M288 192v-96c0-58.313-37.688-96-96-96s-96 37.688-96 96v96h-64v256h320v-256h-64zm-160-96c0-40.672 23.328-64 64-64s64 23.328 64 64v96h-128v-96zm192 320h-256v-192h256v192zm-111.982-100.916l.045 68.916h-32l-.045-68.893c-9.405-5.574-16.018-15.384-16.018-27.107 0-17.674 14.326-32 32-32s32 14.326 32 32c0 11.707-6.6 21.506-15.982 27.084z"/></svg>

<svg xmlns="http://www.w3.org/2000/svg" viewBox="0 0 448 448"><path d="M288 192V96c0-58.313-37.688-96-96-96S96 37.688 96 96v96H32v256h320V192h-64zM128 96c0-40.672 23.328-64 64-64s64 23.328 64 64v96H128V96zm192 320H64V224h256v192zM208.018 315.084l.045 68.916h-32l-.045-68.893C166.613 309.533 160 299.723 160 288c0-17.674 14.326-32 32-32s32 14.326 32 32c0 11.707-6.6 21.506-15.982 27.084z"/></svg>
